X: 05063
T: MISS WHITTEMORE'S REEL
C: Bob McQuillen 1 Dec 80
B: Bob's Note Book 5 #63
%R: reel
Z: 2021 John Chambers <jc:trillian.mit.edu>
M: C
L: 1/8
K: D
ag \
| f2d2 d2AG | FGAB A2FE | DFAd fage | f2 d4 ag |\
| f2d2 d2AG | FGAB A2de | fdBd efed | c2 A4 ||
fg \
| gfef gbag | f2d2 d2fa | bagf efed | c2A2 A2Bc |\
| d2D2 D2FE | DEFG A2FA | Bded cdeg | f2 d4 |]
[| AG \
| F2DF A2FA | dfab a2AG | FDFA dfed | c2e2 e2ef |\
| g2ga gfed | c2A2 A2cB | ABcd efga | f2d2 d2 ||
FE \
| DFAd BAdf | a2f2 f2FE | DFAd fafd | e2B2 B2Bc |\
| dcBc dedB | AFDF Adfa |  gecA f2e2 | d6 |]
%%begintext align
%% If you want to see
%% good tunes personified, you just watch Wendy
%% Whittemore at a Contra Dance! Love to you, Wendy!
%%endtext

%%sep 1 1 500

%%sep 1 1 500

